svg/u1f42d.svg

<svg viewBox="0 0 128 128" xmlns="http://www.w3.org/2000/svg">
  <path d="M63.38,41.84c20.08,0.09,26.65,12.11,31.16,19.52c4.5,7.41,8.54,19.71,4.69,28.63 c-3.85,8.92-10.79,18.86-35.1,19.33c-23.31,0.45-33.69-12.2-35.76-20.74c-2.33-9.65-1.07-19.51,7.88-31.25 C46.21,44.28,52.97,41.79,63.38,41.84z" fill="#B0B0B0"/>
  <path d="M122.79,44.28c0,12.83-7.41,24.59-23.09,24.96c-12.85,0.31-23.56-12.39-22.9-24.96 c0.67-12.81,9.95-21.59,22.81-21.59S122.79,31.45,122.79,44.28z" fill="#B0B0B0"/>
  <path d="M51.32,44.04c0,12.83-7.88,24.68-23.56,25.06C14.92,69.41,4.3,58.12,4.87,44.14 c0.52-12.82,9.97-20.99,22.81-21.59C40.76,21.94,51.32,31.21,51.32,44.04z" fill="#B0B0B0"/>
  <path d="M84.71,50.39c0,0-1.35-8.09,6.07-14.46c7.98-6.85,26.05-0.39,21.96,15.36 c-3.57,13.75-20.27,9.88-20.27,9.88s-2.61-3.79-4.13-5.91C86.47,52.63,84.71,50.39,84.71,50.39z" fill="#FFA8A7"/>
  <path d="M43.77,50.1c0,0,2.44-10.35-7.98-15.42s-22.4,3.15-20.36,15c1.79,10.36,11.61,11.43,14.64,11.43 c2.5,0,5.36-0.71,5.36-0.71s1.86-2.51,4.02-5.14C41.61,52.63,43.77,50.1,43.77,50.1z" fill="#FFA8A7"/>
  <path d="M90.88,83.69c-0.69,0-1.29-0.51-1.38-1.21c-0.11-0.77,0.43-1.47,1.2-1.58 c0.03,0,3.27-0.45,8.38-1.04c4.78-0.55,7.5-1.02,7.53-1.02c0.76-0.13,1.49,0.38,1.62,1.14s-0.38,1.49-1.14,1.62 c-0.11,0.02-2.82,0.48-7.68,1.04c-5.08,0.59-8.29,1.02-8.32,1.03C91.01,83.68,90.94,83.69,90.88,83.69z" fill="#5D6265"/>
  <path d="M106.56,89.98c-0.08,0-0.16-0.01-0.24-0.02c-0.03-0.01-3.27-0.55-7.92-0.83 c-4.71-0.28-7.63-0.37-7.66-0.37c-0.77-0.03-1.38-0.67-1.35-1.44c0.02-0.77,0.68-1.37,1.44-1.35c0.03,0,2.98,0.1,7.73,0.38 c4.81,0.28,8.09,0.84,8.23,0.86c0.76,0.13,1.27,0.85,1.14,1.62C107.82,89.49,107.23,89.98,106.56,89.98z" fill="#5D6265"/>
  <path d="M103.83,97.77c-0.15,0-0.3-0.02-0.46-0.08c0,0-3-1.03-7.33-2.54c-4.2-1.46-6.35-2.03-6.37-2.03 c-0.75-0.2-1.2-0.96-1-1.71c0.2-0.75,0.96-1.2,1.71-1c0.09,0.02,2.26,0.59,6.58,2.1c4.31,1.5,7.32,2.53,7.32,2.53 c0.73,0.25,1.12,1.05,0.87,1.78C104.96,97.4,104.42,97.77,103.83,97.77z" fill="#5D6265"/>
  <path d="M38.04,84.81c-0.11,0-0.22-0.01-0.32-0.04c-0.04-0.01-3.6-0.85-8.48-1.77 c-4.9-0.92-8.38-1.49-8.41-1.5c-0.76-0.12-1.28-0.84-1.16-1.61c0.12-0.76,0.84-1.29,1.61-1.16c0.04,0.01,3.55,0.58,8.48,1.51 c4.95,0.93,8.57,1.79,8.6,1.8c0.75,0.18,1.22,0.93,1.04,1.68C39.25,84.38,38.68,84.81,38.04,84.81z" fill="#5D6265"/>
  <path d="M20.77,89.79c-0.7,0-1.31-0.53-1.39-1.24c-0.09-0.77,0.46-1.46,1.23-1.55 c0.14-0.02,3.39-0.38,7.99-0.57c4.56-0.19,9.27-0.28,9.32-0.28c0.01,0,0.02,0,0.03,0c0.76,0,1.38,0.61,1.4,1.37 c0.02,0.77-0.6,1.41-1.37,1.43c-0.05,0-4.73,0.1-9.26,0.28c-4.49,0.18-7.75,0.55-7.78,0.56C20.88,89.79,20.83,89.79,20.77,89.79z" fill="#5D6265"/>
  <path d="M24.06,97.77c-0.54,0-1.06-0.32-1.29-0.84c-0.31-0.71,0.02-1.53,0.73-1.84 c0.09-0.04,2.28-0.99,6.35-2.21c4.01-1.21,8.26-2.35,8.3-2.36c0.75-0.2,1.51,0.24,1.71,0.99c0.2,0.75-0.24,1.51-0.99,1.71 c-0.04,0.01-4.25,1.13-8.21,2.33c-3.89,1.18-6.02,2.09-6.04,2.1C24.44,97.73,24.25,97.77,24.06,97.77z" fill="#5D6265"/>
  <path d="M86.26,75.99c0.4,3.6-1.04,5.86-3.33,6.13c-2.96,0.35-4.79-1.76-5.14-5.49 c-0.29-3.07,1.45-5.53,3.75-5.77C83.83,70.63,85.88,72.57,86.26,75.99z" fill="#2F2F2F"/>
  <path d="M50.62,76.37c-0.01,3.55-1.55,5.61-3.94,5.61c-3.38,0-5-2.38-4.93-6.05c0.06-3.02,2.21-5.1,4.6-5.08 C48.74,70.88,50.63,72.99,50.62,76.37z" fill="#2F2F2F"/>
  <path d="M58.5,93.78c0,0,0.06,7.71,3.63,7.94c1.64,0.11,2.25-1.13,2.25-1.13s0.88,1.14,2.24,1.21 c2.82,0.14,3.33-6.01,3.33-7.79s-6.01-2.58-6.01-2.58L58.5,93.78z" fill="#FFFFFF"/>
  <path d="M64.18,77.08c-3.33,0-4.96,2.91-4.93,6.43c0.05,4.55,3.05,4.88,2.96,5.96 c-0.09,1.08-1.31,1.91-3.24,1.88c-2.63-0.05-3.14-2.02-4.41-1.45c-1.22,0.54-0.61,1.97,0.09,2.63c1.14,1.06,2.22,1.89,4.5,2.02 c3.33,0.19,4.55-1.55,5.26-1.6c0.7-0.05,1.92,1.37,5.44,1.5c3.89,0.14,5.02-1.97,5.44-2.58c0.42-0.61,0.45-1.48,0-1.92 c-0.8-0.8-1.64-0.42-2.35,0.19c-0.7,0.61-2.11,1.08-3,1.13c-0.89,0.05-3.77-0.75-3.71-1.83c0.09-1.55,2.96-1.27,2.96-6.29 C69.2,79.05,67.09,77.08,64.18,77.08z" fill="#2F2F2F"/>
</svg>

<svg viewBox="0 0 128 128" xmlns="http://www.w3.org/2000/svg">
  <defs/>
  <path d="M63.38,41.84 C83.46,41.93 90.03,53.95 94.54,61.36 C99.04,68.77 103.08,81.07 99.23,89.99 C95.38,98.91 88.44,108.85 64.13,109.32 C40.82,109.77 30.44,97.12 28.37,88.58 C26.04,78.93 27.3,69.07 36.25,57.33 C46.21,44.28 52.97,41.79 63.38,41.84 Z" fill="#B0B0B0"/>
  <path d="M122.79,44.28 C122.79,57.11 115.38,68.87 99.7,69.24 C86.85,69.55 76.14,56.85 76.8,44.28 C77.47,31.47 86.75,22.69 99.61,22.69 C112.47,22.69 122.79,31.45 122.79,44.28 Z" fill="#B0B0B0"/>
  <path d="M51.32,44.04 C51.32,56.87 43.44,68.72 27.76,69.1 C14.92,69.41 4.3,58.12 4.87,44.14 C5.39,31.32 14.84,23.15 27.68,22.55 C40.76,21.94 51.32,31.21 51.32,44.04 Z" fill="#B0B0B0"/>
  <path d="M84.71,50.39 C84.71,50.39 83.36,42.3 90.78,35.93 C98.76,29.08 116.83,35.54 112.74,51.29 C109.17,65.04 92.47,61.17 92.47,61.17 C92.47,61.17 89.86,57.38 88.34,55.26 C86.47,52.63 84.71,50.39 84.71,50.39 Z" fill="#FFA8A7"/>
  <path d="M43.77,50.1 C43.77,50.1 46.21,39.75 35.79,34.68 C25.37,29.61 13.39,37.83 15.43,49.68 C17.22,60.04 27.04,61.11 30.07,61.11 C32.57,61.11 35.43,60.4 35.43,60.4 C35.43,60.4 37.29,57.89 39.45,55.26 C41.61,52.63 43.77,50.1 43.77,50.1 Z" fill="#FFA8A7"/>
  <path d="M90.88,83.69 C90.19,83.69 89.59,83.18 89.5,82.48 C89.39,81.71 89.93,81.01 90.7,80.9 C90.73,80.9 93.97,80.45 99.08,79.86 C103.86,79.31 106.58,78.84 106.61,78.84 C107.37,78.71 108.1,79.22 108.23,79.98 C108.36,80.74 107.85,81.47 107.09,81.6 C106.98,81.62 104.27,82.08 99.41,82.64 C94.33,83.23 91.12,83.66 91.09,83.67 C91.01,83.68 90.94,83.69 90.88,83.69 Z" fill="#5D6265"/>
  <path d="M106.56,89.98 C106.48,89.98 106.4,89.97 106.32,89.96 C106.29,89.95 103.05,89.41 98.4,89.13 C93.69,88.85 90.77,88.76 90.74,88.76 C89.97,88.73 89.36,88.09 89.39,87.32 C89.41,86.55 90.07,85.95 90.83,85.97 C90.86,85.97 93.81,86.07 98.56,86.35 C103.37,86.63 106.65,87.19 106.79,87.21 C107.55,87.34 108.06,88.06 107.93,88.83 C107.82,89.49 107.23,89.98 106.56,89.98 Z" fill="#5D6265"/>
  <path d="M103.83,97.77 C103.68,97.77 103.53,97.75 103.37,97.69 C103.37,97.69 100.37,96.66 96.04,95.15 C91.84,93.69 89.69,93.12 89.67,93.12 C88.92,92.92 88.47,92.16 88.67,91.41 C88.87,90.66 89.63,90.21 90.38,90.41 C90.47,90.43 92.64,91 96.96,92.51 C101.27,94.01 104.28,95.04 104.28,95.04 C105.01,95.29 105.4,96.09 105.15,96.82 C104.96,97.4 104.42,97.77 103.83,97.77 Z" fill="#5D6265"/>
  <path d="M38.04,84.81 C37.93,84.81 37.82,84.8 37.72,84.77 C37.68,84.76 34.12,83.92 29.24,83 C24.34,82.08 20.86,81.51 20.83,81.5 C20.07,81.38 19.55,80.66 19.67,79.89 C19.79,79.13 20.51,78.6 21.28,78.73 C21.32,78.74 24.83,79.31 29.76,80.24 C34.71,81.17 38.33,82.03 38.36,82.04 C39.11,82.22 39.58,82.97 39.4,83.72 C39.25,84.38 38.68,84.81 38.04,84.81 Z" fill="#5D6265"/>
  <path d="M20.77,89.79 C20.07,89.79 19.46,89.26 19.38,88.55 C19.29,87.78 19.84,87.09 20.61,87 C20.75,86.98 24,86.62 28.6,86.43 C33.16,86.24 37.87,86.15 37.92,86.15 C37.93,86.15 37.94,86.15 37.95,86.15 C38.71,86.15 39.33,86.76 39.35,87.52 C39.37,88.29 38.75,88.93 37.98,88.95 C37.93,88.95 33.25,89.05 28.72,89.23 C24.23,89.41 20.97,89.78 20.94,89.79 C20.88,89.79 20.83,89.79 20.77,89.79 Z" fill="#5D6265"/>
  <path d="M24.06,97.77 C23.52,97.77 23,97.45 22.77,96.93 C22.46,96.22 22.79,95.4 23.5,95.09 C23.59,95.05 25.78,94.1 29.85,92.88 C33.86,91.67 38.11,90.53 38.15,90.52 C38.9,90.32 39.66,90.76 39.86,91.51 C40.06,92.26 39.62,93.02 38.87,93.22 C38.83,93.23 34.62,94.35 30.66,95.55 C26.77,96.73 24.64,97.64 24.62,97.65 C24.44,97.73 24.25,97.77 24.06,97.77 Z" fill="#5D6265"/>
  <path d="M86.26,75.99 C86.66,79.59 85.22,81.85 82.93,82.12 C79.97,82.47 78.14,80.36 77.79,76.63 C77.5,73.56 79.24,71.1 81.54,70.86 C83.83,70.63 85.88,72.57 86.26,75.99 Z" fill="#2F2F2F"/>
  <path d="M50.62,76.37 C50.61,79.92 49.07,81.98 46.68,81.98 C43.3,81.98 41.68,79.6 41.75,75.93 C41.81,72.91 43.96,70.83 46.35,70.85 C48.74,70.88 50.63,72.99 50.62,76.37 Z" fill="#2F2F2F"/>
  <path d="M58.5,93.78 C58.5,93.78 58.56,101.49 62.13,101.72 C63.77,101.83 64.38,100.59 64.38,100.59 C64.38,100.59 65.26,101.73 66.62,101.8 C69.44,101.94 69.95,95.79 69.95,94.01 C69.95,92.23 63.94,91.43 63.94,91.43 L58.5,93.78 Z" fill="#FFFFFF"/>
  <path d="M64.18,77.08 C60.85,77.08 59.22,79.99 59.25,83.51 C59.3,88.06 62.3,88.39 62.21,89.47 C62.12,90.55 60.9,91.38 58.97,91.35 C56.34,91.3 55.83,89.33 54.56,89.9 C53.34,90.44 53.95,91.87 54.65,92.53 C55.79,93.59 56.87,94.42 59.15,94.55 C62.48,94.74 63.7,93 64.41,92.95 C65.11,92.9 66.33,94.32 69.85,94.45 C73.74,94.59 74.87,92.48 75.29,91.87 C75.71,91.26 75.74,90.39 75.29,89.95 C74.49,89.15 73.65,89.53 72.94,90.14 C72.24,90.75 70.83,91.22 69.94,91.27 C69.05,91.32 66.17,90.52 66.23,89.44 C66.32,87.89 69.19,88.17 69.19,83.15 C69.2,79.05 67.09,77.08 64.18,77.08 Z" fill="#2F2F2F"/>
</svg>
